packages/ffe-icons/icons/filled/md/filter_6.svg

<svg xmlns="http://www.w3.org/2000/svg" height="24" viewBox="0 -960 960 960" width="24"><path d="M512.307-370.001h75.384q30.308 0 51.308-21 21-20.999 21-51.307v-75.384q0-30.308-21-51.307-21-21-51.308-21h-87.692v-87.693q0-5.385 3.461-8.847 3.462-3.462 8.847-3.462h77.692q12.769 0 21.384-8.615 8.616-8.615 8.616-21.384t-8.616-21.384q-8.615-8.615-21.384-8.615h-77.692q-30.307 0-51.307 21-21 20.999-21 51.307v235.384q0 30.308 21 51.307 21 21 51.307 21Zm-12.308-160h87.692q5.385 0 8.847 3.462 3.462 3.462 3.462 8.847v75.384q0 5.385-3.462 8.847-3.462 3.462-8.847 3.462h-75.384q-4.616 0-8.462-3.462t-3.846-8.847v-87.693Zm-177.691 270q-30.308 0-51.307-21-21-21-21-51.308v-455.382q0-30.308 21-51.308 20.999-21 51.307-21h455.383q30.307 0 51.307 21 21 21 21 51.308v455.382q0 30.308-21 51.308t-51.307 21H322.308ZM182.309-120.003q-30.307 0-51.307-21-21-21-21-51.307v-485.382q0-12.769 8.615-21.384 8.616-8.615 21.384-8.615 12.769 0 21.385 8.615 8.615 8.615 8.615 21.384v485.382q0 4.616 3.846 8.462 3.847 3.847 8.462 3.847h485.382q12.769 0 21.385 8.615 8.615 8.615 8.615 21.384t-8.615 21.384q-8.616 8.615-21.385 8.615H182.309Z"/></svg>

<svg xmlns="http://www.w3.org/2000/svg" height="24" viewBox="0 -960 960 960" width="24"><path d="M512.31-370h75.38Q618-370 639-391q21-21 21-51.31v-75.38Q660-548 639-569q-21-21-51.31-21H500v-87.69q0-5.39 3.46-8.85t8.85-3.46H590q12.77 0 21.38-8.62Q620-707.23 620-720t-8.62-21.38Q602.77-750 590-750h-77.69Q482-750 461-729q-21 21-21 51.31v235.38Q440-412 461-391q21 21 51.31 21ZM500-530h87.69q5.39 0 8.85 3.46t3.46 8.85v75.38q0 5.39-3.46 8.85t-8.85 3.46h-75.38q-4.62 0-8.47-3.46-3.84-3.46-3.84-8.85V-530ZM322.31-260Q292-260 271-281q-21-21-21-51.31v-455.38Q250-818 271-839q21-21 51.31-21h455.38Q808-860 829-839q21 21 21 51.31v455.38Q850-302 829-281q-21 21-51.31 21H322.31Zm-140 140Q152-120 131-141q-21-21-21-51.31v-485.38q0-12.77 8.62-21.39 8.61-8.61 21.38-8.61t21.39 8.61q8.61 8.62 8.61 21.39v485.38q0 4.62 3.85 8.46 3.84 3.85 8.46 3.85h485.38q12.77 0 21.39 8.61 8.61 8.62 8.61 21.39 0 12.77-8.61 21.38-8.62 8.62-21.39 8.62H182.31Z"/></svg>
